Newaita-dark/apps/16/mintreport.svg

<svg height="16pt" viewBox="0 0 16 16" width="16pt" xmlns="http://www.w3.org/2000/svg" xmlns:xlink="http://www.w3.org/1999/xlink"><linearGradient id="a" gradientUnits="userSpaceOnUse" x1="7.938261" x2="7.938261" y1="14.0169675" y2="14.67848943751"><stop offset="0" stop-opacity=".27451"/><stop offset="1" stop-opacity="0"/></linearGradient><linearGradient id="b"><stop offset="0" stop-opacity=".313725"/><stop offset=".222222" stop-opacity=".27451"/><stop offset="1" stop-opacity="0"/></linearGradient><radialGradient id="c" cx="450.90894" cy="189.57936" gradientTransform="matrix(.00000009 -.0390662 -.0703192 -.00000005 25.073043 31.797667)" gradientUnits="userSpaceOnUse" r="21.166656" xlink:href="#b"/><radialGradient id="d" cx="450.90894" cy="189.57936" gradientTransform="matrix(-.00000009 .0390662 .0703192 .00000005 -9.196525 -3.76374)" gradientUnits="userSpaceOnUse" r="21.166656" xlink:href="#b"/><radialGradient id="e" cx="450.90894" cy="189.57936" gradientTransform="matrix(-.00000009 -.0390662 .0703192 -.00000005 -9.196525 31.797667)" gradientUnits="userSpaceOnUse" r="21.166656" xlink:href="#b"/><radialGradient id="f" cx="450.90894" cy="189.57936" gradientTransform="matrix(.00000009 .0390662 -.0703192 .00000005 25.073042 -3.76374)" gradientUnits="userSpaceOnUse" r="21.166656" xlink:href="#b"/><linearGradient id="g" gradientTransform="matrix(.0376748 0 0 .108706 -2.927007 16.820674)" gradientUnits="userSpaceOnUse" x1="323.51324" x2="323.51324" y1="-141.41458" y2="-25.791676"><stop offset="0" stop-color="#8d6e63"/><stop offset="1" stop-color="#795548"/></linearGradient><linearGradient id="h" gradientUnits="userSpaceOnUse" x1="254" x2="254" y1="212.33333" y2="-115.75"><stop offset="0" stop-color="#e0e0e0"/><stop offset="1" stop-color="#eee"/></linearGradient><linearGradient id="i" gradientUnits="userSpaceOnUse" x1="7.9382592" x2="7.9382592" y1="14.01696629816" y2="1.44805531933"><stop offset="0" stop-color="#424242"/><stop offset="1" stop-color="#616161"/></linearGradient><path d="m3.96875 14.015625h7.9375v.664063h-7.9375zm0 0" fill="url(#a)"/><path d="m11.90625 14.015625h1.324219v-.660156h-1.324219zm0 0" fill="url(#c)"/><path d="m3.96875 14.015625h-1.324219v.664063h1.324219zm0 0" fill="url(#d)"/><path d="m3.96875 14.015625h-1.324219v-.660156h1.324219zm0 0" fill="url(#e)"/><path d="m11.90625 14.015625h1.324219v.664063h-1.324219zm0 0" fill="url(#f)"/><path d="m3.308594 3.101562h9.261718c.363282 0 .660157.296876.660157.660157v9.59375c0 .367187-.296875.660156-.660157.660156h-9.261718c-.367188 0-.664063-.292969-.664063-.660156v-9.59375c0-.363281.296875-.660157.664063-.660157zm0 0" fill="url(#g)"/><path d="m3.308594 3.148438c-.367188 0-.664063.292968-.664063.660156v.082031c0-.363281.296875-.660156.664063-.660156h9.261718c.363282 0 .660157.296875.660157.660156v-.082031c0-.367188-.296875-.660156-.660157-.660156zm0 0" fill="#fff" fill-opacity=".392157"/><path d="m3.308594 13.980469c-.367188 0-.664063-.296875-.664063-.664063v-.082031c0 .367187.296875.664063.664063.664063h9.261718c.363282 0 .660157-.296876.660157-.664063v.082031c0 .367188-.296875.664063-.660157.664063zm0 0" fill-opacity=".196078"/><path d="m105.86489-115.759477h296.346701c11.62389 0 21.122983 9.499093 21.122983 21.122983v306.970686c0 11.748878-9.499093 21.122982-21.122983 21.122982h-296.346701c-11.748878 0-21.247971-9.374104-21.247971-21.122982v-306.970686c0-11.62389 9.499093-21.122983 21.247971-21.122983zm0 0" fill="none" stroke="#212121" stroke-linecap="round" stroke-width="3" transform="matrix(.031253 0 0 .031253 0 6.719392)"/><path d="m126.987873-105.135492h253.975747c5.874439 0 10.623985 4.749547 10.623985 10.498998v296.3467c0 5.874439-4.749546 10.623986-10.623985 10.623986h-253.975747c-5.874439 0-10.623985-4.749547-10.623985-10.623986v-296.3467c0-5.749451 4.749546-10.498998 10.623985-10.498998zm0 0" fill="url(#h)" stroke="#212121" stroke-linecap="round" stroke-linejoin="round" stroke-width="3" transform="matrix(.031253 0 0 .031253 0 6.719392)"/><path d="m5.953125 1.449219c-.183594 0-.332031.144531-.332031.328125v.332031h-.992188c-.179687 0-.328125.148437-.328125.332031v1.320313c0 .183593.148438.332031.328125.332031h6.617188c.183594 0 .332031-.148438.332031-.332031v-1.320313c0-.183594-.148437-.332031-.332031-.332031h-.992188v-.332031c0-.183594-.148437-.328125-.332031-.328125zm0 0" fill="url(#i)"/><path d="m4.300781 3.761719v.332031c0 .183594.148438.332031.328125.332031h6.617188c.183594 0 .332031-.148437.332031-.332031v-.332031c0 .183593-.148437.332031-.332031.332031h-6.617188c-.179687 0-.328125-.148438-.328125-.332031zm0 0" fill-opacity=".235294"/><path d="m5.953125 1.449219c-.183594 0-.332031.144531-.332031.328125v.125c0-.183594.148437-.332032.332031-.332032h3.96875c.183594 0 .332031.148438.332031.332032v-.125c0-.183594-.148437-.328125-.332031-.328125zm-1.324219.660156c-.179687 0-.328125.148437-.328125.332031v.121094c0-.179688.148438-.328125.328125-.328125h.992188v-.125zm5.625 0v.125h.992188c.183594 0 .332031.148437.332031.328125v-.121094c0-.183594-.148437-.332031-.332031-.332031zm0 0" fill="#fff" fill-opacity=".313725"/><path d="m719.931259 175.258856c-22.202604 0-40.153646 17.478646-40.153646 39.681251v40.153646h-119.988543c-21.730209 0-39.681251 17.951042-39.681251 40.153647v159.669793c0 22.202605 17.951042 40.153647 39.681251 40.153647h800.238551c22.202605 0 40.153647-17.951042 40.153647-40.153647v-159.669793c0-22.202605-17.951042-40.153647-40.153647-40.153647h-119.988543v-40.153646c0-22.202605-17.951042-39.681251-40.153646-39.681251zm0 0" fill="none" stroke="#212121" stroke-linecap="round" stroke-linejoin="round" stroke-width="11.338583" transform="scale(.00826902)"/><path d="m3.636719 13.023438v.167968c0 .183594.148437.328125.332031.328125h7.9375c.183594 0 .332031-.144531.332031-.328125v-.167968c0 .183593-.148437.332031-.332031.332031h-7.9375c-.183594 0-.332031-.148438-.332031-.332031zm0 0" fill-opacity=".235294"/><g fill="#f44336"><path d="m7.609375 5.085938h.660156c.183594 0 .332031.148437.332031.332031v3.96875c0 .183593-.148437.332031-.332031.332031h-.660156c-.183594 0-.332031-.148438-.332031-.332031v-3.96875c0-.183594.148437-.332031.332031-.332031zm0 0"/><path d="m7.609375 10.710938h.660156c.183594 0 .332031.136718.332031.304687v.710937c0 .167969-.148437.304688-.332031.304688h-.660156c-.183594 0-.332031-.136719-.332031-.304688v-.710937c0-.167969.148437-.304687.332031-.304687zm0 0"/></g></svg>

<?xml version="1.0" encoding="UTF-8"?>
<svg xmlns="http://www.w3.org/2000/svg" xmlns:xlink="http://www.w3.org/1999/xlink" width="16pt" height="16pt" viewBox="0 0 16 16" version="1.1">
<defs>
<linearGradient id="linear0" gradientUnits="userSpaceOnUse" x1="254" y1="233.5" x2="254" y2="254.66667" gradientTransform="matrix(0.031253,0,0,0.031253,-0.00000125012,6.719392)">
<stop offset="0" style="stop-color:rgb(0%,0%,0%);stop-opacity:0.27451;"/>
<stop offset="1" style="stop-color:rgb(0%,0%,0%);stop-opacity:0;"/>
</linearGradient>
<radialGradient id="radial0" gradientUnits="userSpaceOnUse" cx="450.90894" cy="189.57936" fx="450.90894" fy="189.57936" r="21.166656" gradientTransform="matrix(0.0000000870852,-0.0390662,-0.0703192,-0.0000000507693,25.073043,31.797667)">
<stop offset="0" style="stop-color:rgb(0%,0%,0%);stop-opacity:0.313725;"/>
<stop offset="0.222222" style="stop-color:rgb(0%,0%,0%);stop-opacity:0.27451;"/>
<stop offset="1" style="stop-color:rgb(0%,0%,0%);stop-opacity:0;"/>
</radialGradient>
<radialGradient id="radial1" gradientUnits="userSpaceOnUse" cx="450.90894" cy="189.57936" fx="450.90894" fy="189.57936" r="21.166656" gradientTransform="matrix(-0.0000000870852,0.0390662,0.0703192,0.0000000507693,-9.196525,-3.76374)">
<stop offset="0" style="stop-color:rgb(0%,0%,0%);stop-opacity:0.313725;"/>
<stop offset="0.222222" style="stop-color:rgb(0%,0%,0%);stop-opacity:0.27451;"/>
<stop offset="1" style="stop-color:rgb(0%,0%,0%);stop-opacity:0;"/>
</radialGradient>
<radialGradient id="radial2" gradientUnits="userSpaceOnUse" cx="450.90894" cy="189.57936" fx="450.90894" fy="189.57936" r="21.166656" gradientTransform="matrix(-0.0000000870852,-0.0390662,0.0703192,-0.0000000507693,-9.196525,31.797667)">
<stop offset="0" style="stop-color:rgb(0%,0%,0%);stop-opacity:0.313725;"/>
<stop offset="0.222222" style="stop-color:rgb(0%,0%,0%);stop-opacity:0.27451;"/>
<stop offset="1" style="stop-color:rgb(0%,0%,0%);stop-opacity:0;"/>
</radialGradient>
<radialGradient id="radial3" gradientUnits="userSpaceOnUse" cx="450.90894" cy="189.57936" fx="450.90894" fy="189.57936" r="21.166656" gradientTransform="matrix(0.0000000870852,0.0390662,-0.0703192,0.0000000507693,25.073042,-3.76374)">
<stop offset="0" style="stop-color:rgb(0%,0%,0%);stop-opacity:0.313725;"/>
<stop offset="0.222222" style="stop-color:rgb(0%,0%,0%);stop-opacity:0.27451;"/>
<stop offset="1" style="stop-color:rgb(0%,0%,0%);stop-opacity:0;"/>
</radialGradient>
<linearGradient id="linear1" gradientUnits="userSpaceOnUse" x1="323.51324" y1="-141.41458" x2="323.51324" y2="-25.791676" gradientTransform="matrix(0.0376748,0,0,0.108706,-2.927007,16.820674)">
<stop offset="0" style="stop-color:rgb(55.294118%,43.137255%,38.823529%);stop-opacity:1;"/>
<stop offset="1" style="stop-color:rgb(47.45098%,33.333333%,28.235294%);stop-opacity:1;"/>
</linearGradient>
<linearGradient id="linear2" gradientUnits="userSpaceOnUse" x1="254" y1="212.33333" x2="254" y2="-115.75" >
<stop offset="0" style="stop-color:rgb(87.843137%,87.843137%,87.843137%);stop-opacity:1;"/>
<stop offset="1" style="stop-color:rgb(93.333333%,93.333333%,93.333333%);stop-opacity:1;"/>
</linearGradient>
<linearGradient id="linear3" gradientUnits="userSpaceOnUse" x1="960" y1="1695.1182" x2="960" y2="175.11813" gradientTransform="matrix(0.00826902,0,0,0.00826902,0,0)">
<stop offset="0" style="stop-color:rgb(25.882353%,25.882353%,25.882353%);stop-opacity:1;"/>
<stop offset="1" style="stop-color:rgb(38.039216%,38.039216%,38.039216%);stop-opacity:1;"/>
</linearGradient>
</defs>
<g id="surface1">
<path style=" stroke:none;fill-rule:nonzero;fill:url(#linear0);" d="M 3.96875 14.015625 L 11.90625 14.015625 L 11.90625 14.679688 L 3.96875 14.679688 Z M 3.96875 14.015625 "/>
<path style=" stroke:none;fill-rule:nonzero;fill:url(#radial0);" d="M 11.90625 14.015625 L 13.230469 14.015625 L 13.230469 13.355469 L 11.90625 13.355469 Z M 11.90625 14.015625 "/>
<path style=" stroke:none;fill-rule:nonzero;fill:url(#radial1);" d="M 3.96875 14.015625 L 2.644531 14.015625 L 2.644531 14.679688 L 3.96875 14.679688 Z M 3.96875 14.015625 "/>
<path style=" stroke:none;fill-rule:nonzero;fill:url(#radial2);" d="M 3.96875 14.015625 L 2.644531 14.015625 L 2.644531 13.355469 L 3.96875 13.355469 Z M 3.96875 14.015625 "/>
<path style=" stroke:none;fill-rule:nonzero;fill:url(#radial3);" d="M 11.90625 14.015625 L 13.230469 14.015625 L 13.230469 14.679688 L 11.90625 14.679688 Z M 11.90625 14.015625 "/>
<path style=" stroke:none;fill-rule:nonzero;fill:url(#linear1);" d="M 3.308594 3.101562 L 12.570312 3.101562 C 12.933594 3.101562 13.230469 3.398438 13.230469 3.761719 L 13.230469 13.355469 C 13.230469 13.722656 12.933594 14.015625 12.570312 14.015625 L 3.308594 14.015625 C 2.941406 14.015625 2.644531 13.722656 2.644531 13.355469 L 2.644531 3.761719 C 2.644531 3.398438 2.941406 3.101562 3.308594 3.101562 Z M 3.308594 3.101562 "/>
<path style=" stroke:none;fill-rule:nonzero;fill:rgb(100%,100%,100%);fill-opacity:0.392157;" d="M 3.308594 3.148438 C 2.941406 3.148438 2.644531 3.441406 2.644531 3.808594 L 2.644531 3.890625 C 2.644531 3.527344 2.941406 3.230469 3.308594 3.230469 L 12.570312 3.230469 C 12.933594 3.230469 13.230469 3.527344 13.230469 3.890625 L 13.230469 3.808594 C 13.230469 3.441406 12.933594 3.148438 12.570312 3.148438 Z M 3.308594 3.148438 "/>
<path style=" stroke:none;fill-rule:nonzero;fill:rgb(0%,0%,0%);fill-opacity:0.196078;" d="M 3.308594 13.980469 C 2.941406 13.980469 2.644531 13.683594 2.644531 13.316406 L 2.644531 13.234375 C 2.644531 13.601562 2.941406 13.898438 3.308594 13.898438 L 12.570312 13.898438 C 12.933594 13.898438 13.230469 13.601562 13.230469 13.234375 L 13.230469 13.316406 C 13.230469 13.683594 12.933594 13.980469 12.570312 13.980469 Z M 3.308594 13.980469 "/>
<path style="fill:none;stroke-width:3;stroke-linecap:round;stroke-linejoin:miter;stroke:rgb(12.941176%,12.941176%,12.941176%);stroke-opacity:1;stroke-miterlimit:4;" d="M 105.86489 -115.759477 L 402.211591 -115.759477 C 413.835481 -115.759477 423.334574 -106.260384 423.334574 -94.636494 L 423.334574 212.334192 C 423.334574 224.08307 413.835481 233.457174 402.211591 233.457174 L 105.86489 233.457174 C 94.116012 233.457174 84.616919 224.08307 84.616919 212.334192 L 84.616919 -94.636494 C 84.616919 -106.260384 94.116012 -115.759477 105.86489 -115.759477 Z M 105.86489 -115.759477 " transform="matrix(0.031253,0,0,0.031253,0,6.719392)"/>
<path style="fill-rule:nonzero;fill:url(#linear2);stroke-width:3;stroke-linecap:round;stroke-linejoin:round;stroke:rgb(12.941176%,12.941176%,12.941176%);stroke-opacity:1;stroke-miterlimit:4;" d="M 126.987873 -105.135492 L 380.96362 -105.135492 C 386.838059 -105.135492 391.587605 -100.385945 391.587605 -94.636494 L 391.587605 201.710206 C 391.587605 207.584645 386.838059 212.334192 380.96362 212.334192 L 126.987873 212.334192 C 121.113434 212.334192 116.363888 207.584645 116.363888 201.710206 L 116.363888 -94.636494 C 116.363888 -100.385945 121.113434 -105.135492 126.987873 -105.135492 Z M 126.987873 -105.135492 " transform="matrix(0.031253,0,0,0.031253,0,6.719392)"/>
<path style=" stroke:none;fill-rule:nonzero;fill:url(#linear3);" d="M 5.953125 1.449219 C 5.769531 1.449219 5.621094 1.59375 5.621094 1.777344 L 5.621094 2.109375 L 4.628906 2.109375 C 4.449219 2.109375 4.300781 2.257812 4.300781 2.441406 L 4.300781 3.761719 C 4.300781 3.945312 4.449219 4.09375 4.628906 4.09375 L 11.246094 4.09375 C 11.429688 4.09375 11.578125 3.945312 11.578125 3.761719 L 11.578125 2.441406 C 11.578125 2.257812 11.429688 2.109375 11.246094 2.109375 L 10.253906 2.109375 L 10.253906 1.777344 C 10.253906 1.59375 10.105469 1.449219 9.921875 1.449219 Z M 5.953125 1.449219 "/>
<path style=" stroke:none;fill-rule:nonzero;fill:rgb(0%,0%,0%);fill-opacity:0.235294;" d="M 4.300781 3.761719 L 4.300781 4.09375 C 4.300781 4.277344 4.449219 4.425781 4.628906 4.425781 L 11.246094 4.425781 C 11.429688 4.425781 11.578125 4.277344 11.578125 4.09375 L 11.578125 3.761719 C 11.578125 3.945312 11.429688 4.09375 11.246094 4.09375 L 4.628906 4.09375 C 4.449219 4.09375 4.300781 3.945312 4.300781 3.761719 Z M 4.300781 3.761719 "/>
<path style=" stroke:none;fill-rule:nonzero;fill:rgb(100%,100%,100%);fill-opacity:0.313725;" d="M 5.953125 1.449219 C 5.769531 1.449219 5.621094 1.59375 5.621094 1.777344 L 5.621094 1.902344 C 5.621094 1.71875 5.769531 1.570312 5.953125 1.570312 L 9.921875 1.570312 C 10.105469 1.570312 10.253906 1.71875 10.253906 1.902344 L 10.253906 1.777344 C 10.253906 1.59375 10.105469 1.449219 9.921875 1.449219 Z M 4.628906 2.109375 C 4.449219 2.109375 4.300781 2.257812 4.300781 2.441406 L 4.300781 2.5625 C 4.300781 2.382812 4.449219 2.234375 4.628906 2.234375 L 5.621094 2.234375 L 5.621094 2.109375 Z M 10.253906 2.109375 L 10.253906 2.234375 L 11.246094 2.234375 C 11.429688 2.234375 11.578125 2.382812 11.578125 2.5625 L 11.578125 2.441406 C 11.578125 2.257812 11.429688 2.109375 11.246094 2.109375 Z M 10.253906 2.109375 "/>
<path style="fill:none;stroke-width:11.338583;stroke-linecap:round;stroke-linejoin:round;stroke:rgb(12.941176%,12.941176%,12.941176%);stroke-opacity:1;stroke-miterlimit:4;" d="M 719.931259 175.258856 C 697.728655 175.258856 679.777613 192.737502 679.777613 214.940107 L 679.777613 255.093753 L 559.78907 255.093753 C 538.058861 255.093753 520.107819 273.044795 520.107819 295.2474 L 520.107819 454.917193 C 520.107819 477.119798 538.058861 495.07084 559.78907 495.07084 L 1360.027621 495.07084 C 1382.230226 495.07084 1400.181268 477.119798 1400.181268 454.917193 L 1400.181268 295.2474 C 1400.181268 273.044795 1382.230226 255.093753 1360.027621 255.093753 L 1240.039078 255.093753 L 1240.039078 214.940107 C 1240.039078 192.737502 1222.088036 175.258856 1199.885432 175.258856 Z M 719.931259 175.258856 " transform="matrix(0.00826902,0,0,0.00826902,0,0)"/>
<path style=" stroke:none;fill-rule:nonzero;fill:rgb(0%,0%,0%);fill-opacity:0.235294;" d="M 3.636719 13.023438 L 3.636719 13.191406 C 3.636719 13.375 3.785156 13.519531 3.96875 13.519531 L 11.90625 13.519531 C 12.089844 13.519531 12.238281 13.375 12.238281 13.191406 L 12.238281 13.023438 C 12.238281 13.207031 12.089844 13.355469 11.90625 13.355469 L 3.96875 13.355469 C 3.785156 13.355469 3.636719 13.207031 3.636719 13.023438 Z M 3.636719 13.023438 "/>
<path style=" stroke:none;fill-rule:nonzero;fill:rgb(95.686275%,26.27451%,21.176471%);fill-opacity:1;" d="M 7.609375 5.085938 L 8.269531 5.085938 C 8.453125 5.085938 8.601562 5.234375 8.601562 5.417969 L 8.601562 9.386719 C 8.601562 9.570312 8.453125 9.71875 8.269531 9.71875 L 7.609375 9.71875 C 7.425781 9.71875 7.277344 9.570312 7.277344 9.386719 L 7.277344 5.417969 C 7.277344 5.234375 7.425781 5.085938 7.609375 5.085938 Z M 7.609375 5.085938 "/>
<path style=" stroke:none;fill-rule:nonzero;fill:rgb(95.686275%,26.27451%,21.176471%);fill-opacity:1;" d="M 7.609375 10.710938 L 8.269531 10.710938 C 8.453125 10.710938 8.601562 10.847656 8.601562 11.015625 L 8.601562 11.726562 C 8.601562 11.894531 8.453125 12.03125 8.269531 12.03125 L 7.609375 12.03125 C 7.425781 12.03125 7.277344 11.894531 7.277344 11.726562 L 7.277344 11.015625 C 7.277344 10.847656 7.425781 10.710938 7.609375 10.710938 Z M 7.609375 10.710938 "/>
</g>
</svg>
